X: 23337
T: Leipheim
R: jig
M: 6/8
K: Dmixolydian
|:dcA AGE|EAD DFA|dcA AGE|G3 A/c/de|
dcA AGE|EAD DAG|EFA GEA|DD/D/D DFA:|
|:d2A dfe|dcA AGE|DFA dcA|c3 Gce|
d2A dfe|dcA AGE|AcA GEA|1 DD/D/D DFA:|2 DD/D/D D3||

